X: 05011
T: The BIONIC CLOGGER
C: Bob McQuillen 28 Aug'80
B: Bob's Note Book 5 #11
%R: jig
Z: 2021 John Chambers <jc:trillian.mit.edu>
M: 6/8
L: 1/8
K: Bm
|:FBB B2c | d2e f2e | ded c2B | A3  F3 |\
| FBB B2c | def f2e | ded c2f | B3  B3 :|
|:aba f2e | ded cAF | Bcd ede | fef d2B |\
| bab afd | fed efa | fed cdc | B3  B3 :|
%%begintext align
%% Dalsemer suggested this title
%% for a tune for Ginette Dubois
%% Roy, so here it is!
%%endtext

%%sep 1 1 500

%%sep 1 1 500

